packages/kaspersky-hexa-ui-icons/src/iconsSVGs/16/EmojiHappy.svg

<svg width="16" height="16" viewBox="0 0 16 16" fill="none" xmlns="http://www.w3.org/2000/svg">
<path d="M5.99854 7.07429C6.52198 7.07429 6.9463 6.64997 6.9463 6.12653C6.9463 5.6031 6.52198 5.17877 5.99854 5.17877C5.47511 5.17877 5.05078 5.6031 5.05078 6.12653C5.05078 6.64997 5.47511 7.07429 5.99854 7.07429Z" fill="black"/>
<path d="M10.9492 6.12653C10.9492 6.64997 10.5249 7.07429 10.0015 7.07429C9.47804 7.07429 9.05371 6.64997 9.05371 6.12653C9.05371 5.6031 9.47804 5.17877 10.0015 5.17877C10.5249 5.17877 10.9492 5.6031 10.9492 6.12653Z" fill="black"/>
<path d="M6.03887 9.23013C5.77703 8.98456 5.36568 8.99775 5.1201 9.25959C4.87453 9.52144 4.88772 9.93278 5.14956 10.1784C5.37286 10.3878 6.37961 11.2485 7.96566 11.2851C8.03212 11.2867 8.10096 11.2868 8.16933 11.2851C9.68787 11.2478 10.6545 10.3736 10.864 10.1669C11.1195 9.91468 11.1222 9.50313 10.87 9.24764C10.6178 8.99214 10.2063 8.98946 9.95076 9.24164C9.83352 9.35736 9.16776 9.96019 8.13738 9.98552C8.09152 9.98664 8.04345 9.9866 7.99571 9.98549C6.87213 9.95952 6.15944 9.34321 6.03887 9.23013Z" fill="black"/>
<path fill-rule="evenodd" clip-rule="evenodd" d="M15 8C15 11.866 11.866 15 8 15C4.13401 15 1 11.866 1 8C1 4.13401 4.13401 1 8 1C11.866 1 15 4.13401 15 8ZM13.7 8C13.7 11.148 11.148 13.7 8 13.7C4.85198 13.7 2.3 11.148 2.3 8C2.3 4.85198 4.85198 2.3 8 2.3C11.148 2.3 13.7 4.85198 13.7 8Z" fill="black"/>
</svg>

<svg xmlns="http://www.w3.org/2000/svg" width="16" height="16" fill="none" viewBox="0 0 16 16"><path fill="#000" fill-rule="evenodd" d="M15 8c0 3.866-3.134 7-7 7s-7-3.134-7-7 3.134-7 7-7 7 3.134 7 7m-1.3 0c0 3.148-2.552 5.7-5.7 5.7S2.3 11.148 2.3 8 4.852 2.3 8 2.3s5.7 2.552 5.7 5.7m-7.7015-.9257a.9478.9478 0 1 0 0-1.8955.9478.9478 0 0 0 0 1.8955m4.9507-.9478a.9478.9478 0 1 1-1.8954 0 .9478.9478 0 0 1 1.8954 0M6.0389 9.2301a.65.65 0 1 0-.8893.9483c.2233.2094 1.23 1.0701 2.816 1.1067a4 4 0 0 0 .2037 0c1.5186-.0373 2.4852-.9115 2.6947-1.1182a.65.65 0 0 0-.9132-.9253c-.1173.1158-.783.7186-1.8134.744a3 3 0 0 1-.1417-.0001c-1.1236-.026-1.8363-.6423-1.9568-.7554"/></svg>
